X: 9153
T: Dálaigh's
R: polka
M: 2/4
K: Edorian
|:D|E2 FA|Be ed|Bd/B/ AF|EF D2|
E>F GA|Be ed|Bd/B/ AF|1 FE E:|2 FE E2||
|:Be ef|af ed|Be ef|af d2|
Be ef|af ed|Bd/B/ AF|1 FE EA:|2 FE E||

